X: 649
T: Nzi buhuijia
%%abc-version 2.0
%%abcx-abcm2ps-target-version 5.9.1 (29 Sep 2008)
%%abc-creator hum2abc beta
%%abcx-conversion-date 2013/10/02 07:52:30
%%abc-edited-by Helmut Schaffrath
%%humdrum-veritas 1626272451
%%humdrum-veritas-data 2885722721
%%continueall 1
%%barnumbers 0
L: 1/8
M: 2/4
K: G
d> c d e [I:setbarnb 1]| 
d c A3/ B/ | 
d B/ c/ d e | 
G3A | 
d d/ c/ A A/ d/ | 
A G/ E< D E/ | 
A A/ G/ E E/ G/ | 
D4 |]  



